packages/ui-icons/svg/Line/admin.svg

<svg viewBox="0 0 1920 1920" version="1.1" xmlns="http://www.w3.org/2000/svg">
    <path d="M276.941176,440.583529 L276.941176,1006.30588 C276.941176,1428.70588 651.115294,1631.77412 951.651765,1794.97412 L959.670588,1799.26588 L967.802353,1794.97412 C1268.33882,1631.77412 1642.51294,1428.70588 1642.51294,1006.30588 L1642.51294,440.583529 L959.670588,118.927059 L276.941176,440.583529 Z M959.670588,1920.11294 C950.409412,1920.11294 941.148235,1917.74118 932.677647,1913.22353 L897.778824,1894.24941 C588.094118,1726.08 164,1495.90588 164,1006.30588 L164,404.781176 C164,382.870588 176.649412,362.992941 196.414118,353.618824 L935.727059,5.42117647 C950.861176,-1.80705882 968.592941,-1.80705882 983.727059,5.42117647 L1723.04,353.618824 C1742.80471,362.992941 1755.45412,382.870588 1755.45412,404.781176 L1755.45412,1006.30588 C1755.45412,1495.90588 1331.24706,1726.08 1021.67529,1894.24941 L986.776471,1913.22353 C978.305882,1917.74118 969.044706,1920.11294 959.670588,1920.11294 L959.670588,1920.11294 Z M1426.82918,1372.46118 L1113.41741,1372.46118 L1021.82212,1280.97882 L1021.82212,1197.17647 L905.040941,1197.17647 L905.040941,1080.39529 L821.351529,1080.39529 L762.848,1021.89176 C760.928,1022.00471 759.008,1022.00471 757.088,1022.00471 C581.012706,1022.00471 437.803294,878.795294 437.803294,702.72 C437.803294,526.644706 581.012706,383.322353 757.088,383.322353 C933.163294,383.322353 1076.37271,526.644706 1076.37271,702.72 C1076.37271,704.64 1076.37271,706.56 1076.25976,708.367059 L1426.82918,1059.04941 L1426.82918,1372.46118 Z M1160.17506,1259.52 L1313.888,1259.52 L1313.888,1105.80706 L958.462118,750.155294 L962.415059,712.884706 C963.431529,588.988235 870.819765,496.263529 757.088,496.263529 C643.356235,496.263529 550.744471,588.988235 550.744471,702.72 C550.744471,816.564706 643.356235,909.063529 757.088,909.063529 L804.297412,903.755294 L868.109176,967.454118 L1017.98212,967.454118 L1017.98212,1084.23529 L1134.76329,1084.23529 L1134.76329,1234.22118 L1160.17506,1259.52 Z M846.774588,705.950118 C846.774588,752.707765 808.826353,790.656 762.068706,790.656 C715.311059,790.656 677.362824,752.707765 677.362824,705.950118 C677.362824,659.192471 715.311059,621.244235 762.068706,621.244235 C808.826353,621.244235 846.774588,659.192471 846.774588,705.950118" stroke="none" stroke-width="1" fill-rule="evenodd"/>
</svg>

<svg viewBox="0 0 1920 1920" xmlns="http://www.w3.org/2000/svg">
    <path d="M276.941 440.584v565.722c0 422.4 374.174 625.468 674.71 788.668l8.02 4.292 8.131-4.292c300.537-163.2 674.71-366.268 674.71-788.668V440.584l-682.84-321.657L276.94 440.584Zm682.73 1479.529c-9.262 0-18.523-2.372-26.993-6.89l-34.9-18.974C588.095 1726.08 164 1495.906 164 1006.306V404.78c0-21.91 12.65-41.788 32.414-51.162L935.727 5.42c15.134-7.228 32.866-7.228 48 0l739.313 348.2c19.765 9.374 32.414 29.252 32.414 51.162v601.525c0 489.6-424.207 719.774-733.779 887.943l-34.899 18.975c-8.47 4.517-17.731 6.889-27.105 6.889Zm467.158-547.652h-313.412l-91.595-91.482v-83.803H905.041v-116.78h-83.69l-58.503-58.504c-1.92.113-3.84.113-5.76.113-176.075 0-319.285-143.21-319.285-319.285 0-176.075 143.21-319.398 319.285-319.398 176.075 0 319.285 143.323 319.285 319.398 0 1.92 0 3.84-.113 5.647l350.57 350.682v313.412Zm-266.654-112.941h153.713v-153.713L958.462 750.155l3.953-37.27c1.017-123.897-91.595-216.621-205.327-216.621S550.744 588.988 550.744 702.72c0 113.845 92.612 206.344 206.344 206.344l47.21-5.309 63.811 63.7h149.873v116.78h116.781v149.986l25.412 25.299Zm-313.4-553.57c0 46.758-37.949 84.706-84.706 84.706-46.758 0-84.706-37.948-84.706-84.706s37.948-84.706 84.706-84.706c46.757 0 84.706 37.948 84.706 84.706" fill-rule="evenodd"/>
</svg>
